X:328
T:Speed The Plough
R: hp 32 reel
C:Trad / From playing of John & Wendy Wilson
N:Via Ed Rennie
M:4/4
L:1/8
Q:120
K:G
G2 Bc dedB|dgdB dedB|cdcA BcBG|EAAG FGAB|
G2 Bc dedB|dgdB dedB|cdBc ABGA|FGAB G2D2|
G2 Bc dedB|dgdB dedB|cdcA BcBG|EAAG FGAB|
G2 Bc dedB|dgdB dedB|cdBc ABGA|FGAB G3z|
g2 gf gGBd|gGfG eGdG|cdcA BcBG|EAAG FGAB|
g2 gf gdBG|efge dBAG|cdBc ABGA|FGAB G2G2|
g2 gf gGBd|gGfG eGdG|cdcA BcBG|EAAG FGAB|
g2 gf gdBG|efge dBAG|cdBc ABGA|FGAB G4|

